dist/assets/img/questions/8/backdrop_1200.svg

<svg width="744" height="377" viewBox="0 0 744 377" fill="none" xmlns="http://www.w3.org/2000/svg"><g filter="url(#filter0_di_1419_49189)"><path fill-rule="evenodd" clip-rule="evenodd" d="M258.933 303.526c-93.709-6.56-190.13-13.309-213.162-77.711C10.397 126.906 144.152 59.413 269.32 40.696c107.874-16.13 291.342-29.711 351.898 44.281 15.623 19.09 27.575 39.688 35.013 60.531 2.702 7.572 8.438 14.131 16.459 14.675 10.452.71 21.171-1.234 30.932-3.004.161-.029.263.167.146.283-8.771 8.665-19.506 13.848-29.656 16.866-5.636 1.676-9.565 7.005-9.27 12.878 2.139 42.527-17.334 82.51-65.811 108.858-69.69 37.877-157.611 32.573-239.571 17.839-30.427-5.469-65.286-7.91-100.527-10.377z" fill="#fff"/></g><defs><filter id="filter0_di_1419_49189" x="0" y="0" width="743.818" height="377" filterUnits="userSpaceOnUse" color-interpolation-filters="sRGB"><feFlood flood-opacity="0" result="BackgroundImageFix"/><feColorMatrix in="SourceAlpha" values="0 0 0 0 0 0 0 0 0 0 0 0 0 0 0 0 0 0 127 0" result="hardAlpha"/><feOffset dy="12"/><feGaussianBlur stdDeviation="20"/><feComposite in2="hardAlpha" operator="out"/><feColorMatrix values="0 0 0 0 0.909804 0 0 0 0 0.313726 0 0 0 0 0.470588 0 0 0 1 0"/><feBlend in2="BackgroundImageFix" result="effect1_dropShadow_1419_49189"/><feBlend in="SourceGraphic" in2="effect1_dropShadow_1419_49189" result="shape"/><feColorMatrix in="SourceAlpha" values="0 0 0 0 0 0 0 0 0 0 0 0 0 0 0 0 0 0 127 0" result="hardAlpha"/><feOffset dy="-4"/><feGaussianBlur stdDeviation="4"/><feComposite in2="hardAlpha" operator="arithmetic" k2="-1" k3="1"/><feColorMatrix values="0 0 0 0 0.909804 0 0 0 0 0.313726 0 0 0 0 0.470588 0 0 0 0.48 0"/><feBlend in2="shape" result="effect2_innerShadow_1419_49189"/></filter></defs></svg>

<svg width="744" height="377" viewBox="0 0 744 377" fill="none" xmlns="http://www.w3.org/2000/svg">
<g filter="url(#filter0_di_1419_49189)">
<path fill-rule="evenodd" clip-rule="evenodd" d="M258.933 303.526C165.224 296.966 68.8039 290.217 45.771 225.815C10.3972 126.906 144.152 59.4128 269.32 40.6961C377.194 24.5656 560.662 10.9847 621.218 84.9774C636.841 104.067 648.793 124.665 656.231 145.508C658.933 153.08 664.669 159.639 672.69 160.183C683.142 160.893 693.861 158.949 703.622 157.179C703.783 157.15 703.885 157.346 703.768 157.462C694.997 166.127 684.262 171.31 674.112 174.328C668.476 176.004 664.547 181.333 664.842 187.206C666.981 229.733 647.508 269.716 599.031 296.064C529.341 333.941 441.42 328.637 359.46 313.903C329.033 308.434 294.174 305.993 258.933 303.526Z" fill="white"/>
</g>
<defs>
<filter id="filter0_di_1419_49189" x="0" y="0" width="743.818" height="377" filterUnits="userSpaceOnUse" color-interpolation-filters="sRGB">
<feFlood flood-opacity="0" result="BackgroundImageFix"/>
<feColorMatrix in="SourceAlpha" type="matrix" values="0 0 0 0 0 0 0 0 0 0 0 0 0 0 0 0 0 0 127 0" result="hardAlpha"/>
<feOffset dy="12"/>
<feGaussianBlur stdDeviation="20"/>
<feComposite in2="hardAlpha" operator="out"/>
<feColorMatrix type="matrix" values="0 0 0 0 0.909804 0 0 0 0 0.313726 0 0 0 0 0.470588 0 0 0 1 0"/>
<feBlend mode="normal" in2="BackgroundImageFix" result="effect1_dropShadow_1419_49189"/>
<feBlend mode="normal" in="SourceGraphic" in2="effect1_dropShadow_1419_49189" result="shape"/>
<feColorMatrix in="SourceAlpha" type="matrix" values="0 0 0 0 0 0 0 0 0 0 0 0 0 0 0 0 0 0 127 0" result="hardAlpha"/>
<feOffset dy="-4"/>
<feGaussianBlur stdDeviation="4"/>
<feComposite in2="hardAlpha" operator="arithmetic" k2="-1" k3="1"/>
<feColorMatrix type="matrix" values="0 0 0 0 0.909804 0 0 0 0 0.313726 0 0 0 0 0.470588 0 0 0 0.48 0"/>
<feBlend mode="normal" in2="shape" result="effect2_innerShadow_1419_49189"/>
</filter>
</defs>
</svg>
